X:1
T:ANDERSON'S RANT
T:ANDERSON'S RANT
T:Wm MARSHALL
C:Wm MARSHALL
%%score 1 2
L:1/8
M:2/2
K:C
V:1 treble 
V:2 bass 
V:1
|: CEGE c2 (ce) | GECE D2 (DE) | CEGE cdfa | gede c/c/c c2 :| gecg ecge | gece d2 d2 | %6
 gecg ecge fdge c/c/c c2 | gecg ecge gece d2 d2 | GcFc Ec fa | gede c/c/c c2 |] x8 | x8 |] %12
V:2
|: C,2 [E,C]2 [E,C]2 [E,C]2 | [E,C]2 [E,G,]2 [G,B,]2 [G,B,]2 | C,2 [E,C]2 [F,C]2 [F,C]2 | %3
 C2 [G,B,]2 [C,C]2 [C,C]2 :| [C,C]2 [E,C]2 [G,C]2 [E,C]2 | [C,C]2 [E,C]2 [G,B,]2 [G,B,]2 | %6
 [C,C]2 [E,C]2 [G,C]2 [E,C]2 x8 | [G,B,]2 [G,B,]2 [C,C]2 [C,C]2 x8 | [C,C]2 [E,C]2 [G,C]2 [E,C]2 | %9
 [C,C]2 [E,C]2 [G,B,]2 [G,B,]2 |] [E,C]2 [F,C]2 [G,C]2 [A,C]2 | C2 [G,B,]2 [C,G,C]2 [C,G,C]2 |] %12

